X:1
T:Dandaleith [1]
T:Dandaleith [1]
T:William Marshall
C:William Marshall
L:1/8
M:4/4
K:F
V:1 treble 
V:1
 c | (A<d) (d>c) A<F F>(A | c>)d c<A G2 (Gc) | (A<d) (d>c) A<F F>(e | f>)g a<c A2 A :: G | %6
 F<(ff>)g (fg/a/) (a>g) | f<d c>A G2 (G>A) | F<(f f>)g (fg/a/) (a>g) | f<c d>f A2 A :| d | %11
 c<A A>d c<A A>d | c>A A>F G2 Gd | c<A A>d c<A A>a | fcdf A2 A>d | c<A A>F G2 (G>A) | %16
 F>G A<d c<A A<a | fcdf A2 A || g | f>g a<g f<dd<f | c<A A>F G2 (GA) | f>g a<g f<dd<f | %22
 c<A f>g a2 (ag) | f>g a<g f<dd>f | c<A A>F G2 (GA) | F>G A<d c<AA<a | fcdf A2 A || G | %28
 F>G A<f c<A Af | c<A A>F G2 (G>A) | F>G A<f c<AA<a | f>c d<f c<A A>F G2 Gf/g/ | a>fg>e f>c d<f | %33
 c<A f>g a2 af/g/ | a>fg>e f>c d<f | c<A A>F G2 (GA) | f>G A<d c<A A>a | f>c d<F A2 A || %38

